X:61
T:O'Callaghan's
R:hornpipe
Z:id:hn-hornpipe-61
M:C|
K:G
(3Bcd|efgf eABA|GABd dBGE|DEGA ~B3d|(3efg fg ed (3Bcd|
g2fg ed (3Bcd|geaf gfed|(3BcB GB (3ABA FA|~G3F G2:|
|:(3efg|afge dega|bBBA G2 (3efg|afge dega|beed e3g|
f2 (3def gfeg|(3fgf (3def gfeg|fbaf gfed|(3Bcd ef e2:|

